img/house.svg

<svg width="46" height="46" viewBox="0 0 46 46" fill="none" xmlns="http://www.w3.org/2000/svg">
<path d="M45.0823 42.7137H44.0212V19.4911L44.5795 19.7517C44.7029 19.8092 44.8354 19.8377 44.9675 19.8377C45.1395 19.8377 45.3108 19.7894 45.4605 19.6941C45.725 19.5256 45.8853 19.2336 45.8853 18.92V15.2337C45.8853 14.8771 45.6788 14.5529 45.3557 14.402L42.1954 12.9273V6.96618C42.1954 6.45938 41.7845 6.04848 41.2777 6.04848H35.8192C35.3124 6.04848 34.9015 6.45938 34.9015 6.96618V9.52371L17.7862 1.53704C17.5182 1.412 17.2064 1.4237 16.9488 1.56847L0.468259 10.8251C0.179067 10.9877 0 11.2935 0 11.6253V15.3116C0 15.6375 0.172873 15.9389 0.45415 16.1037C0.735541 16.2683 1.08301 16.2714 1.36715 16.1118L1.86409 15.8327V42.7138H0.955905C0.449102 42.7138 0.0381995 43.1247 0.0381995 43.6315C0.0381995 44.1383 0.449102 44.5492 0.955905 44.5492H2.7818H43.1035H45.0823C45.5891 44.5492 46 44.1383 46 43.6315C46 43.1247 45.5891 42.7137 45.0823 42.7137ZM36.7369 10.3479V7.88389H40.3599V12.0709L36.7353 10.3795C36.7356 10.3689 36.7369 10.3586 36.7369 10.3479ZM1.83541 12.1623L17.4369 3.3994L44.0499 15.8183V17.4792L17.7862 5.22334C17.663 5.16576 17.5305 5.13719 17.3982 5.13719C17.2429 5.13719 17.0879 5.17666 16.9488 5.25478L1.83541 13.7436V12.1623ZM3.6995 42.7137V14.8321C3.6995 14.8221 3.69835 14.8125 3.69801 14.8025L17.4369 7.0856L42.1858 18.6346V42.7137H3.6995Z" fill="#FAFAFA"/>
<path d="M21.1072 27.1198H6.46214C5.95534 27.1198 5.54443 27.5307 5.54443 28.0375V39.9749C5.54443 40.4817 5.95534 40.8926 6.46214 40.8926H21.1072C21.614 40.8926 22.0249 40.4817 22.0249 39.9749V28.0375C22.0249 27.5307 21.614 27.1198 21.1072 27.1198ZM7.37984 28.9552H12.8669V39.0572H7.37984V28.9552ZM20.1895 39.0572H14.7024V28.9552H20.1895V39.0572Z" fill="#FAFAFA"/>
<path d="M39.4614 27.1198H24.7781C24.2713 27.1198 23.8604 27.5307 23.8604 28.0375V39.9749C23.8604 40.4817 24.2713 40.8926 24.7781 40.8926H39.4614C39.9682 40.8926 40.3791 40.4817 40.3791 39.9749V28.0375C40.3791 27.5307 39.9682 27.1198 39.4614 27.1198ZM25.6958 28.9552H31.202V39.0572H25.6958V28.9552ZM38.5436 39.0572H33.0374V28.9552H38.5436V39.0572Z" fill="#FAFAFA"/>
<path d="M39.8494 19.7713L25.2327 12.9504C25.0954 12.8863 24.9506 12.8591 24.8088 12.8649C24.2931 12.8474 23.8604 13.265 23.8604 13.7821V24.3931C23.8604 24.8999 24.2713 25.3108 24.7781 25.3108H39.4614C39.9682 25.3108 40.3791 24.8999 40.3791 24.3931V20.6029C40.3791 20.2463 40.1726 19.9221 39.8494 19.7713ZM25.6958 15.1919L31.202 17.7614V23.4753H25.6958V15.1919ZM38.5436 23.4754H33.0374V18.6179L38.5436 21.1874V23.4754Z" fill="#FAFAFA"/>
<path d="M22.021 11.9611C22.0199 11.9476 22.0183 11.9343 22.0167 11.9209C22.0147 11.9055 22.0124 11.8901 22.0097 11.8749C22.0068 11.8592 22.0036 11.8436 21.9999 11.8281C21.9969 11.8156 21.9938 11.8032 21.9903 11.7908C21.9856 11.7738 21.9804 11.7572 21.9747 11.7405C21.9709 11.7294 21.9668 11.7184 21.9625 11.7074C21.9561 11.6909 21.9495 11.6747 21.9421 11.6586C21.9369 11.6474 21.9316 11.6363 21.9259 11.6251C21.9185 11.6105 21.9109 11.596 21.9027 11.5818C21.8957 11.5695 21.8883 11.5576 21.8807 11.5456C21.8729 11.5334 21.865 11.5213 21.8567 11.5095C21.8475 11.4964 21.8378 11.4837 21.8279 11.4711C21.8199 11.461 21.8119 11.4511 21.8037 11.4414C21.7925 11.4283 21.7809 11.4157 21.7689 11.4032C21.7604 11.3943 21.7519 11.3857 21.7431 11.3772C21.7308 11.3654 21.7181 11.354 21.7051 11.3427C21.695 11.3341 21.6848 11.3257 21.6745 11.3175C21.6622 11.3078 21.6498 11.2986 21.6371 11.2895C21.6241 11.2803 21.6109 11.2716 21.5975 11.2631C21.5864 11.2561 21.5753 11.2492 21.5638 11.2426C21.5475 11.2332 21.5307 11.2244 21.5138 11.2161C21.5075 11.213 21.5017 11.2093 21.4954 11.2063L18.3216 9.72538C18.0057 9.57797 17.6486 9.62592 17.3868 9.81979C17.3704 9.82782 17.3539 9.83516 17.3378 9.84422L6.01281 16.2052C5.70698 16.377 5.53789 16.6978 5.54478 17.0256C5.54478 17.0279 5.54443 17.0301 5.54443 17.0324V24.3932C5.54443 24.9 5.95534 25.3109 6.46214 25.3109H21.1072C21.614 25.3109 22.0249 24.9 22.0249 24.3932V12.038C22.0249 12.0308 22.024 12.0238 22.0239 12.0165C22.0234 11.9981 22.0226 11.9796 22.021 11.9611ZM7.37984 17.5424L12.8669 14.4604V23.4754H7.37984V17.5424ZM14.7024 23.4754V13.4295L17.9773 11.59L20.1896 12.6225V23.4753H14.7024V23.4754Z" fill="#FAFAFA"/>
</svg>

<svg width="46" height="46" fill="none" xmlns="http://www.w3.org/2000/svg"><path d="M45.082 42.714h-1.06V19.49l.558.26a.918.918 0 001.305-.831v-3.686a.918.918 0 00-.53-.832l-3.16-1.475v-5.96a.918.918 0 00-.917-.919h-5.459a.918.918 0 00-.918.918v2.558L17.787 1.537a.918.918 0 00-.837.031L.469 10.825a.918.918 0 00-.469.8v3.687a.918.918 0 001.367.8l.497-.28v26.882H.956a.918.918 0 000 1.835H45.082a.918.918 0 000-1.835zm-8.345-32.366V7.884h3.623v4.187l-3.625-1.691.002-.032zM1.835 12.162L17.437 3.4 44.05 15.82v1.66L17.786 5.223a.916.916 0 00-.837.032L1.835 13.744v-1.582zM3.7 42.714V14.832l-.002-.03 13.739-7.716 24.749 11.549v24.079H3.7z" fill="#FAFAFA"/><path d="M21.107 27.12H6.462a.918.918 0 00-.918.918v11.937c0 .507.411.918.918.918h14.645c.507 0 .918-.411.918-.918V28.037a.918.918 0 00-.918-.917zM7.38 28.955h5.487v10.102H7.38V28.955zm12.81 10.102h-5.488V28.955h5.487v10.102zM39.461 27.12H24.778a.918.918 0 00-.918.918v11.937c0 .507.411.918.918.918h14.683c.507 0 .918-.411.918-.918V28.037a.918.918 0 00-.918-.917zm-13.765 1.835h5.506v10.102h-5.506V28.955zm12.848 10.102h-5.507V28.955h5.507v10.102zM39.85 19.771l-14.617-6.82a.91.91 0 00-.424-.086.92.92 0 00-.949.917v10.611c0 .507.411.918.918.918h14.683c.507 0 .918-.411.918-.918v-3.79a.918.918 0 00-.53-.832zm-14.154-4.58l5.506 2.57v5.714h-5.506v-8.283zm12.848 8.284h-5.507v-4.857l5.507 2.57v2.287zM22.021 11.961l-.004-.04a1 1 0 00-.055-.214.866.866 0 00-.158-.266.894.894 0 00-.29-.225l-.019-.01-3.173-1.48a.917.917 0 00-.935.094l-.05.024-11.324 6.361a.917.917 0 00-.468.82V24.394c0 .507.41.918.917.918h14.645c.507 0 .918-.411.918-.918V12.038l-.001-.021a.939.939 0 00-.003-.056zM7.38 17.542l5.487-3.082v9.015H7.38v-5.933zm7.322 5.933V13.43l3.275-1.839 2.213 1.033v10.852h-5.488z" fill="#FAFAFA"/></svg>
